X:2989
T:Med kort trea(4+3+2)
R:Polska
M:9/16
L:1/16
K:Dm
af|:d2d2 (^c2A) cd|e4 (f2a) g=b| (a2f2) e2d ((3^c=Bc)|(d2A2) F2D af|
d2d2 (^c2A) cd|e4 (f2a) g=b| (a2f2) e2d ((3^c=Bc)|1 (d4d3)  af:|2 (d4d3)  a2|]
|:(f2ga) (fga) ((3fga)|(b4b3) g2|(e2fg) (efg) ((3efg)|(a4a3) af|
d2d2 (^c2A) cd|e4 (f2a) (g=b)| (a2f2) e2d ((3^c=Bc)|1 (d4d3)  a2:|2 (d4d3)|]
(:musicend:)

(:music:)
